X: 1
T: The Beauty of the North
T: 8 x 32S 3C, Southern Cross Album
P: Miss Campbell of Saddell
M: 4/4
R: Strathspey
C: Robert Macintosh
C: arr. T. Traub 11-18-2002
L: 1/8
K: Bb
d/c/|"Bb"B>d d>c B>A B2|"Cm"Ge/d/ "C"c>B "F"A<FF>c|\
  "D"d>ed>c "Bb"B>AB>F|"Eb"G>E"F"C>F "Bb"D<B, B, :|
B/c/|"Bb"d>B "Eb"g>e "Cm"cd/e/ "Dm"f>d|"Gm"B>G "Eb"e/d/c/B/ "F"A<FF>B|\
  "Eb"G>E "Cm"c>E "F"FG/A/ "Bb"B>D|"Eb"EF/G/ "F"F>E "Bb"D<B, B,B/c/|
"Bb"d<B "Eb"g>e "F"c<A "Dm"f>d|"Gm"B<G "C"c>B "F"A<F "Bb"F>B|\
  "Eb"G<E "Cm"g>e "F"f>A "Bb"B>F|"Eb"G>E"F"C>F "Bb"D<B, B, |]
